X: 37066
T: Silver Spear, The
R: reel
M: 4/4
K: Dmajor
|:"D"FA"d"AA BA"d"FA|"G"df"g"ed "A"Bc"a"dA|"D"FA"d"AA BA"d"FA|"G"df"g"ed "A"B2"a"AG|
"D"FA"d"AA BA"d"FA|df"d"ed Bd"d"ef|"G"(g2"g"g) e "D"(f2"d"f) e|1 "G"df"g"ed "A"B2"a"AG:|2 "G"df"g"ed "A"B2"a"A2||
|:"D"ff"d"af bf"d"af|"G"gf"g"ed "A"Bc"a"de|"D"ff"d"af bf"d"af|"G"gf"g"ed "A"B2"a"A2|
"D"ff"d"af bf"d"af|"G"gf"g"ed Bd"g"ef|"G"(g2"g"g) e "D"(f2"d"f) e|1 "G"df"g"ed "A"B2"a"A2:|2 "G"df"g"ed "A"B2"a"AG||

